symbolic/64x64/apps/extraterm.svg

<svg xmlns="http://www.w3.org/2000/svg" width="64" height="64" version="1.1">
 <circle style="opacity:0.2" cx="32" cy="33" r="28"/>
 <circle style="fill:#3db54a" cx="32" cy="32" r="28"/>
 <path style="opacity:0.2" d="M 21.742188,19 C 21.33442,18.99104 20.999544,19.33144 21,19.753906 v 4.726562 c 3e-4,0.2694 0.14162,0.514314 0.367188,0.648438 L 28.660156,29.5 21.367188,33.871094 C 21.14163,34.005218 21.0003,34.250132 21,34.519532 v 4.726562 c -4.56e-4,0.422464 0.33442,0.762866 0.742188,0.753906 0.12238,-0.003 0.241788,-0.03792 0.347656,-0.10156 L 34.632812,32.4375 C 34.85837,32.30339 34.999698,32.058462 35,31.789062 V 29.5 27.210938 c -3.02e-4,-0.2694 -0.14162,-0.514314 -0.367188,-0.648438 L 22.089844,19.101562 C 21.983976,19.037932 21.864562,19.002968 21.742188,19 Z M 35.332032,41 C 34.593364,41 34,41.669 34,42.5 v 3 c 0,0.831 0.593364,1.5 1.332032,1.5 h 14.335952 c 0.738668,0 1.332032,-0.669 1.332032,-1.5 v -3 c 0,-0.831 -0.593364,-1.5 -1.332032,-1.5 z"/>
 <path style="fill:#ffffff" d="M 21.742188,18 C 21.33442,17.99104 20.999544,18.331441 21,18.753906 v 4.726562 c 3e-4,0.2694 0.14162,0.514314 0.367188,0.648438 L 28.660156,28.5 21.367188,32.871094 C 21.14163,33.005218 21.0003,33.250132 21,33.519532 v 4.726562 c -4.56e-4,0.422464 0.33442,0.762866 0.742188,0.753906 0.12238,-0.003 0.241788,-0.03792 0.347656,-0.10156 L 34.632812,31.4375 C 34.85837,31.30339 34.999698,31.058462 35,30.789062 V 28.5 26.210938 c -3.02e-4,-0.2694 -0.14162,-0.514314 -0.367188,-0.648438 L 22.089844,18.101562 C 21.983976,18.037933 21.864562,18.002968 21.742188,18 Z M 35.332032,40 C 34.593364,40 34,40.669 34,41.5 v 3 c 0,0.831 0.593364,1.5 1.332032,1.5 h 14.335952 c 0.738668,0 1.332032,-0.669 1.332032,-1.5 v -3 c 0,-0.831 -0.593364,-1.5 -1.332032,-1.5 z"/>
 <path style="opacity:0.2;fill:#ffffff" d="M 32 4 A 28 28 0 0 0 4 32 A 28 28 0 0 0 4.0175781 32.492188 A 28 28 0 0 1 32 5 A 28 28 0 0 1 59.974609 32.492188 A 28 28 0 0 0 60 32 A 28 28 0 0 0 32 4 z"/>
</svg>

<svg xmlns="http://www.w3.org/2000/svg" width="64" height="64"><circle style="opacity:.2" cx="32" cy="33" r="28"/><circle style="fill:#3db54a" cx="32" cy="32" r="28"/><path style="opacity:.2" d="M21.742 19a.74.74 0 0 0-.742.754v4.726c0 .27.142.515.367.649L28.66 29.5l-7.293 4.371a.754.754 0 0 0-.367.649v4.726a.74.74 0 0 0 .742.754.708.708 0 0 0 .348-.102l12.543-7.46a.754.754 0 0 0 .367-.649V27.21a.754.754 0 0 0-.367-.648l-12.543-7.46a.707.707 0 0 0-.348-.102zm13.59 22c-.739 0-1.332.669-1.332 1.5v3c0 .831.593 1.5 1.332 1.5h14.336c.739 0 1.332-.669 1.332-1.5v-3c0-.831-.593-1.5-1.332-1.5z"/><path style="fill:#fff" d="M21.742 18a.74.74 0 0 0-.742.754v4.726c0 .27.142.515.367.649L28.66 28.5l-7.293 4.371a.754.754 0 0 0-.367.649v4.726a.74.74 0 0 0 .742.754.708.708 0 0 0 .348-.102l12.543-7.46a.754.754 0 0 0 .367-.649V26.21a.754.754 0 0 0-.367-.648l-12.543-7.46a.707.707 0 0 0-.348-.102zm13.59 22c-.739 0-1.332.669-1.332 1.5v3c0 .831.593 1.5 1.332 1.5h14.336c.739 0 1.332-.669 1.332-1.5v-3c0-.831-.593-1.5-1.332-1.5z"/><path style="opacity:.2;fill:#fff" d="M32 4A28 28 0 0 0 4 32a28 28 0 0 0 .018.492A28 28 0 0 1 32 5a28 28 0 0 1 27.975 27.492A28 28 0 0 0 60 32 28 28 0 0 0 32 4z"/></svg>
